16x16/actions/help-donate-jpy.svg

<svg height="16" width="16" xmlns="http://www.w3.org/2000/svg"><path d="m3.293 2 3.707 3.707v1.293h-3v1h3v2h-3v1h3v3h1v-3h3v-1h-3v-2h3v-1h-3v-1.293l3.707-3.707h-1.414l-2.793 2.793-2.793-2.793z" fill="#555e70"/></svg>

<svg height="16" width="16" xmlns="http://www.w3.org/2000/svg"><path d="M3.293 2 7 5.707V7H4v1h3v2H4v1h3v3h1v-3h3v-1H8V8h3V7H8V5.707L11.707 2h-1.414L7.5 4.793 4.707 2z" fill="currentColor" style="color:#555e70"/></svg>
